public/library/headlessui.svg

<?xml version="1.0" encoding="UTF-8"?>
<svg width="256px" height="256px" viewBox="0 0 256 256" version="1.1" xmlns="http://www.w3.org/2000/svg" xmlns:xlink="http://www.w3.org/1999/xlink" preserveAspectRatio="xMidYMid">
    <title>Headless UI</title>
    <defs>
        <linearGradient x1="35.8706002%" y1="7.22395026%" x2="60.3143692%" y2="115.987925%" id="linearGradient-1">
            <stop stop-color="#66E3FF" offset="0%"></stop>
            <stop stop-color="#7064F9" offset="100%"></stop>
        </linearGradient>
        <linearGradient x1="39.1716101%" y1="-0.000258114803%" x2="55.0500969%" y2="99.1811839%" id="linearGradient-2">
            <stop stop-color="#66E3FF" offset="0%"></stop>
            <stop stop-color="#7064F9" offset="100%"></stop>
        </linearGradient>
    </defs>
    <g>
        <path d="M50.6986759,159.08871 L206.923729,106.936393 C203.80243,87.4132795 201.577503,74.3711999 199.00043,64.4176124 C196.223274,53.7119051 194.022357,50.8474482 193.157997,49.8552901 C190.14581,46.4084468 186.395385,43.6845493 182.185428,41.8860191 C180.968922,41.3659363 177.559502,40.1577436 166.53091,40.8218494 C154.86205,41.5259618 139.543672,43.9103419 115.28557,47.7509546 C91.0354724,51.591567 75.7250972,54.0639613 64.4163882,56.9924283 C53.7159324,59.7688711 50.8427359,61.9772231 49.8503228,62.8413611 C46.4088895,65.857842 43.6877564,69.6024394 41.8870066,73.8111103 C41.3667899,75.0273045 40.1582869,78.4358481 40.8225634,89.4696076 C41.5268568,101.135468 43.9118497,116.457912 47.7534494,140.709779 C48.8258961,147.510864 49.7942992,153.591833 50.6986759,159.08871 L50.6986759,159.08871 Z" id="Path" fill="url(#linearGradient-1)"></path>
        <path d="M7.62473955,147.062792 C0.197646837,100.14331 -3.52390284,76.6835685 4.52744981,57.8485649 C8.72454124,48.0252484 15.0819292,39.2737796 23.1271949,32.2444815 C38.549617,18.778334 62.0073849,15.065742 108.922921,7.63255653 C155.854464,0.191369851 179.312232,-3.52122222 198.16008,4.52806145 C207.980567,8.72542915 216.728782,15.0811604 223.754738,23.1230269 C237.23235,38.5494871 240.945896,62.0092284 248.372989,108.936712 C255.808085,155.856195 259.521632,179.323937 251.470279,198.15094 C247.275985,207.973747 240.921308,216.72525 232.878537,223.755023 C217.456115,237.229172 193.990344,240.941764 147.066804,248.374949 C100.151269,255.808135 76.6854971,259.520727 57.8536554,251.471443 C48.0333048,247.273835 39.2851393,240.91814 32.2589976,232.876477 C18.7813853,217.450017 15.0678389,193.990276 7.63274287,147.062792 L7.62473955,147.062792 Z M90.3872026,230.388081 C102.952435,229.62796 119.135174,227.091555 143.089148,223.29895 C167.051126,219.506345 183.209855,216.913932 195.406934,213.753428 C207.211849,210.688939 212.654116,207.704463 216.167578,204.631973 C221.336653,200.112766 225.420781,194.487252 228.116554,188.173349 C229.957321,183.884665 231.117804,177.787692 230.381497,165.60975 C229.621181,153.047747 227.084124,136.861165 223.290544,112.905345 C219.496965,88.9495246 216.911889,72.7789457 213.750572,60.5930026 C210.685296,48.7831189 207.692049,43.3422514 204.626773,39.8296913 C200.109733,34.6598101 194.485483,30.5739786 188.171921,27.8757849 C183.882135,26.0354914 177.783595,24.8753064 165.602523,25.6114238 C153.037291,26.371545 136.862555,28.9079495 112.900577,32.7005543 C88.9466028,36.5011605 72.7798707,39.0855725 60.590795,42.2460764 C48.7778761,45.3105653 43.3436133,48.3030424 39.8301503,51.3675312 C34.6583762,55.8860779 30.5715011,61.5116077 27.8731712,67.8261559 C26.040408,72.1148399 24.8799248,78.2118123 25.6162313,90.3897542 C26.376548,102.959759 28.9056012,119.138339 32.707184,143.094159 C36.5007639,167.04998 39.0858402,183.220558 42.2471565,195.406502 C45.3124331,207.216385 48.2976761,212.657253 51.3709559,216.169813 C55.8881822,221.33949 61.5123817,225.425286 67.8258079,228.12372 C72.1155942,229.964013 78.2061302,231.124198 90.3952059,230.388081 L90.3872026,230.388081 Z" id="Shape" fill="url(#linearGradient-2)"></path>
    </g>
</svg>

<svg width="256" height="256" xmlns="http://www.w3.org/2000/svg" preserveAspectRatio="xMidYMid"><defs><linearGradient x1="35.871%" y1="7.224%" x2="60.314%" y2="115.988%" id="a"><stop stop-color="#66E3FF" offset="0%"/><stop stop-color="#7064F9" offset="100%"/></linearGradient><linearGradient x1="39.172%" y1="0%" x2="55.05%" y2="99.181%" id="b"><stop stop-color="#66E3FF" offset="0%"/><stop stop-color="#7064F9" offset="100%"/></linearGradient></defs><path d="m50.699 159.089 156.225-52.153c-3.122-19.523-5.346-32.565-7.924-42.518-2.777-10.706-4.978-13.57-5.842-14.563a30.468 30.468 0 0 0-10.973-7.969c-1.216-.52-4.625-1.728-15.654-1.064-11.669.704-26.987 3.088-51.245 6.929-24.25 3.84-39.56 6.313-50.87 9.241-10.7 2.777-13.573 4.985-14.566 5.85a30.581 30.581 0 0 0-7.963 10.97c-.52 1.215-1.729 4.624-1.064 15.658.704 11.665 3.089 26.988 6.93 51.24 1.073 6.8 2.041 12.882 2.946 18.379Z" fill="url(#a)"/><path d="M7.625 147.063c-7.427-46.92-11.149-70.38-3.098-89.214a71.092 71.092 0 0 1 18.6-25.605c15.423-13.466 38.88-17.178 85.796-24.611C155.854.19 179.313-3.521 198.16 4.528a71.085 71.085 0 0 1 25.595 18.595c13.477 15.426 17.19 38.886 24.618 85.814 7.435 46.92 11.149 70.387 3.097 89.214a71.076 71.076 0 0 1-18.591 25.604c-15.423 13.474-38.889 17.187-85.812 24.62-46.916 7.433-70.382 11.146-89.213 3.096a71.093 71.093 0 0 1-25.595-18.595C18.781 217.45 15.068 193.99 7.633 147.063h-.008Zm82.762 83.325c12.565-.76 28.748-3.296 52.702-7.09 23.962-3.792 40.12-6.384 52.318-9.545 11.805-3.064 17.247-6.049 20.76-9.121a45.696 45.696 0 0 0 11.95-16.459c1.84-4.288 3-10.385 2.264-22.563-.76-12.562-3.297-28.749-7.09-52.705-3.794-23.955-6.38-40.126-9.54-52.312-3.066-11.81-6.059-17.25-9.124-20.763a45.699 45.699 0 0 0-16.455-11.954c-4.29-1.84-10.388-3-22.57-2.265-12.565.76-28.74 3.297-52.701 7.09-23.954 3.8-40.121 6.385-52.31 9.545-11.813 3.065-17.247 6.057-20.76 9.122a45.704 45.704 0 0 0-11.958 16.458c-1.833 4.289-2.993 10.386-2.257 22.564.76 12.57 3.29 28.748 7.091 52.704 3.794 23.956 6.379 40.127 9.54 52.313 3.065 11.81 6.05 17.25 9.124 20.763a45.707 45.707 0 0 0 16.455 11.954c4.29 1.84 10.38 3 22.57 2.264h-.009Z" fill="url(#b)"/></svg>
